X:1
T:Le Quattro Stagioni - L'inverno - Concerto N°4 en Fa Mineur RV 297 - 1. Allegro Non Molto
T:Le Quattro Stagioni
T:Antonio Vivaldi (1678-1741)
T:L'INVERNO
T:Concerto N°4 en Fa Mineur RV 297
T:Transcription pour Piano
T:Il cimento dell'armonia e dell'invenzione
C:Vivaldi
%%score { ( 1 4 ) | ( 2 3 ) }
L:1/8
Q:1/4=68
M:4/4
K:Ab
V:1 treble nm="Piano" snm="Pno."
V:4 treble 
V:2 bass 
V:3 bass 
V:1
"^1. Allegro Non Molto""^\"Agghiacciato tremar trà nevi algenti\""!mf!"^A" !arpeggio![A,CF]8 | %1
 GGGG GGGG | dddd dddd | PTbPTbPTbPTb PTbPTbPTbPTb | PTbPTbPTbPTb PTbPTbPTbPTb | %5
 PTaPTaPTaPTa PTaPTaPTaPTa | PTdPTdPTdPTd PTdPTdPTdPTd | PTePTePTePTe PTePTePTePTe | %8
 PT=dPTdPTdPTd PTdPTdPTdPTd |"_cresc." PTePTePTePTe PTePTePTePTe | %10
 [Gc][Gc][Gc][Gc] [G=B][GB][GB][GB] | %11
"^\"Al Severo Spirar d'orrido Vento\""!f!"^B" (!>!c/4c'/4)(c'/4g/4) (g/4e/4)(e/4c/4) (c/4c'/4)(c'/4g/4) (g/4e/4)(e/4c/4) (c/4c'/4b/4a/4 g/4f/4e/4=d/4) (c/4c'/4b/4a/4 g/4f/4e/4d/4) | %12
 (c/4G/4c/4e/4 c/4G/4c/4e/4) (c/4G/4c/4e/4 c/4G/4c/4e/4)!mf! TC4 | %13
"^Dolce" (.[CEG].[CEG].[CEG].[CEG]) (!>!e/4e'/4)(e'/4c'/4) (c'/4g/4)(g/4e/4) (e/4e'/4)(e'/4c'/4) (c'/4g/4)(g/4e/4) | %14
 (e/4e'/4=d'/4c'/4 =b/4=a/4g/4f/4) (e/4e'/4d'/4c'/4 b/4a/4g/4f/4) (e/4c/4e/4g/4 e/4c/4e/4g/4) (e/4c/4e/4g/4 e/4c/4e/4g/4) | %15
 TE4"^Dolce" (.[CEG].[CEG].[CEG].[CEG]) | %16
 (!>!g/4g'/4)(g'/4e'/4) (e'/4c'/4)(c'/4g/4) (g/4g'/4)(g'/4e'/4)(e'/4c'/4)(c'/4g/4)(g/4g'/4f'/4e'/4 =d'/4c'/4=b/4=a/4) (g/4g'/4f'/4e'/4 =d'/4c'/4b/4a/4) | %17
 (g/4e/4g/4c'/4 g/4e/4g/4c'/4) (g/4e/4g/4c'/4 g/4e/4g/4c'/4)!mp! Tc2 cc | %18
!mf! .[cd].[cd].[cd].[cd] .[B=e].[Be].[Be].[Be] | %19
 .[Af]/.[CFA]/.[CFA]/.[CFA]/ .[CFA]/.[CFA]/.[CFA]/.[CFA]/"_cresc." .[D_GB]/.[DGB]/.[DGB]/.[DGB]/ .[DGB]/.[DGB]/.[DGB]/.[DGB]/ | %20
 .[F=Ac]/.[FAc]/.[FAc]/.[FAc]/ .[FAc]/.[FAc]/.[FAc]/.[FAc]/ .[FBd]/.[FBd]/.[FBd]/.[FBd]/ .[FBd]/.[FBd]/.[FBd]/.[FBd]/ | %21
 .[F=Bdf]/.[FBdf]/.[FBdf]/.[FBdf]/ .[FBdf]/.[FBdf]/.[FBdf]/.[FBdf]/ [=EGc]/"^\"Correr battendo i piedi ogni momento\"""^\"Correre, e batter li Piedi per il freddo\""!f!"^C" [=eg]/[eg]/4[eg]/4[eg]/4[eg]/4 [eg]/[eg]/[eg]/[eg]/ | %22
 [fa]/c/[fa]/c/ [fa]/c/[fa]/c/ [Adf]/[df]/[df]/4[df]/4[df]/4[df]/4 [df]/[df]/[df]/[df]/ | %23
 [eg]/d/[eg]/d/ [eg]/d/[eg]/d/ [Gce]/[ce]/[ce]/4[ce]/4[ce]/4[ce]/4 [ce]/[ce]/[ce]/[ce]/ | %24
 [df]/[Ac]/[df]/[Ac]/ [df]/[Ac]/[df]/[Ac]/ [FBd]/[Bd]/[Bd]/4[Bd]/4[Bd]/4[Bd]/4 [Bd]/[Bd]/[Bd]/[Bd]/ | %25
 [c=e]/[GB]/[ce]/[GB]/ [ce]/[GB]/[ce]/[GB]/ [Af]/4=e/4f/4g/4 f/4g/4e/4f/4 g/4f/4g/4a/4 g/4a/4f/4g/4 | %26
 a/4g/4a/4b/4 a/4b/4g/4a/4 b/4a/4b/4c'/4 b/4c'/4a/4b/4 c' z/4 c'/4d'/4e'/4 f'/4c'/4d'/4e'/4 f'/4c'/4d'/4e'/4 | %27
 f'/4e'/4d'/4c'/4 f'/4e'/4d'/4c'/4 f'/4e'/4d'/4c'/4 f'/4e'/4d'/4c'/4 (f/4g/4a/4b/4 c'/4d'/4e'/4f'/4) (f/4g/4a/4b/4 c'/4d'/4e'/4f'/4) | %28
!f! !tenuto![fd']!mp! z/4"_cresc." b/4c'/4d'/4 e'/4b/4c'/4d'/4 e'/4b/4c'/4d'/4 e'/4d'/4c'/4b/4 e'/4d'/4c'/4b/4 e'/4d'/4c'/4b/4 e'/4d'/4c'/4b/4 | %29
 (e/4f/4g/4a/4 b/4c'/4d'/4e'/4) (e/4f/4g/4a/4 b/4c'/4d'/4e'/4)!f! c'!mp! z/4"_cresc." a/4b/4c'/4 d'/4a/4b/4c'/4 d'/4a/4b/4c'/4 | %30
 d'/4c'/4b/4a/4 d'/4c'/4b/4a/4 d'/4c'/4b/4a/4 d'/4c'/4b/4a/4 g/4b/4a/4g/4 c'/4b/4a/4g/4 f/4a/4g/4f/4b/4a/4g/4f/4 | %31
!f! =e/4c/4B/4c/4 G/4c/4B/4c/4 e/4g/4f/4g/4 b/4g/4f/4g/4 e/4c/4B/4c/4 G/4c/4B/4c/4 e/4g/4f/4g/4 b/4g/4f/4g/4 | %32
 =e/4b/4a/4b/4 e/4g/4f/4g/4 B/4d/4c/4d/4 =E/4G/4F/4G/4"^Venti"!mp! [Be]/4G/4[Be]/4G/4 [Be]/4G/4[Be]/4G/4"_cresc." [Be]/4E/4[Be]/4E/4 [Be]/4E/4[Be]/4E/4 | %33
!f! x/4 c/4B/4c/4 A/4c/4B/4c/4 f/4c/4B/4c/4 A/4c/4B/4c/4!mp! [e=a]/4c/4[ea]/4c/4 [ea]/4c/4[ea]/4c/4"_cresc." [ea]/4=A/4[ea]/4A/4 [ea]/4A/4[ea]/4A/4 | %34
!f! b/4=d/4c/4d/4 f/4d/4c/4d/4 B/4d/4c/4d/4 f/4d/4c/4d/4!mp! [f=b]/4=d/4[fb]/4d/4 [fb]/4d/4[fb]/4d/4"_cresc." [fb]/4=B/4[fb]/4B/4 [fb]/4B/4[fb]/4B/4 | %35
!f! c'/4e/4=d/4e/4 g/4e/4d/4e/4 c'/4e/4d/4e/4 g/4e/4d/4c/4!mp! [Ad]/4F/4[Ad]/4F/4 [Ad]/4F/4[Ad]/4F/4"_cresc." [Ad]/4=D/4[Ad]/4D/4 [Ad]/4D/4[Ad]/4D/4 | %36
!f! e/4G/4F/4G/4 e/4G/4F/4G/4 e/4G/4F/4G/4 e/4G/4F/4G/4 [ce]/4F/4[ce]/4F/4 [ce]/4F/4[ce]/4F/4 [ce]/4F/4[ce]/4F/4 [ce]/4F/4[ce]/4F/4 | %37
 [B=d]/4F/4[Bd]/4F/4 [Bd]/4F/4[Bd]/4F/4 [Bd]/4F/4[Bd]/4F/4 [Bd]/4F/4[Bd]/4F/4!mf! !tenuto![GBe]2 z2 | %38
 .F.F.F.F .[FA].[FA].[FA].[FA] | PTBPTBPTBPTB PTBPTBPTBPTB | .PTB.PTB.PTB.PTB .G.G.G.G | %41
 .PTc.PTc.PTc.PTc .[=Ac].[Ac].[Ac].[Ac] | .PT=d.PTd.PTd.PTd!<(! .[df].[df].[df].[df]!<)! | %43
!f! (!>!g/!wedge!e'/!wedge!e'/!wedge!b/) (!wedge!b/!wedge!g/!wedge!g/!wedge!e/) (!>!egb_d') | %44
 (!>!c'/!wedge!f'/!wedge!f'/!wedge!c'/) (!wedge!c'/!wedge!=a/!wedge!a/!wedge!f/) (!>!fac'e') | %45
 (!>!=d'/!wedge!g'/!wedge!g'/!wedge!d'/) (!wedge!d'/!wedge!=b/!wedge!b/!wedge!g/) (!>!gbd'f') | %46
"^D"!p!"^\"E pel Soverchio gel batter i denti\"""_Batter li denti" e'/4c'/4e'/4c'/4e'/4c'/4e'/4c'/4 e'/4c'/4e'/4c'/4e'/4c'/4e'/4c'/4 =d'/4c'/4d'/4c'/4d'/4c'/4d'/4c'/4 d'/4c'/4d'/4c'/4d'/4c'/4d'/4c'/4 | %47
 d'/4b/4d'/4b/4d'/4b/4d'/4b/4 d'/4b/4d'/4b/4d'/4b/4d'/4b/4 g'/4b/4g'/4b/4g'/4b/4g'/4b/4 g'/4b/4g'/4b/4g'/4b/4g'/4b/4 | %48
 g'/4a/4g'/4a/4g'/4a/4g'/4a/4 g'/4a/4g'/4a/4g'/4a/4g'/4a/4 f'/4a/4f'/4a/4f'/4a/4f'/4a/4 f'/4a/4f'/4a/4f'/4a/4f'/4a/4 | %49
 f'/4g/4f'/4g/4f'/4g/4f'/4g/4 f'/4g/4f'/4g/4f'/4g/4f'/4g/4 e'/4c'/4e'/4c'/4e'/4c'/4e'/4c'/4 e'/4c'/4e'/4c'/4e'/4c'/4e'/4c'/4 | %50
 d'/4c'/4d'/4c'/4d'/4c'/4d'/4c'/4 b/4d'/4b/4d'/4b/4d'/4b/4d'/4 c'/4b/4c'/4b/4c'/4b/4c'/4b/4 a/4c'/4a/4c'/4a/4c'/4a/4c'/4 | %51
 b/4a/4b/4a/4b/4a/4b/4a/4 g/4b/4g/4b/4g/4b/4g/4b/4 a/4g/4a/4g/4a/4g/4a/4g/4 f/4a/4f/4a/4f/4a/4f/4a/4 | %52
 g/4f/4g/4f/4g/4f/4g/4f/4 e/4g/4e/4g/4e/4g/4e/4g/4 f/4e/4f/4e/4f/4e/4f/4e/4 d/4f/4d/4f/4d/4f/4d/4f/4 | %53
 .[=eg].[eg].[fa].[fa] .[eg].[eg].[fa].[fa] | .[gb].[gb].[fa].[fa] .[=eg].[eg].[fa].[fa] | %55
!f! [cg]/[=eg]/4[eg]/4[eg]/4[eg]/4[eg]/4[eg]/4 [eg]/[eg]/[eg]/[eg]/ [fa]/[Ac]/[fa]/[Ac]/ [fa]/[Ac]/[fa]/[Ac]/ | %56
 [df]/[df]/4[df]/4[df]/4[df]/4[df]/4[df]/4 [df]/[df]/[df]/[df]/ [eg]/[GB]/[eg]/[GB]/ [eg]/[GB]/[eg]/[GB]/ | %57
 [ce]/[ce]/4[ce]/4[ce]/4[ce]/4[ce]/4[ce]/4 [ce]/[ce]/[ce]/[ce]/ [df]/[FA]/[df]/[FA]/ [df]/[FA]/[df]/[FA]/ | %58
 [Bd]/[Bd]/4[Bd]/4[Bd]/4[Bd]/4[Bd]/4[Bd]/4 [Bd]/[Bd]/[Bd]/[Bd]/ =e/4g/4b/4g/4e/4g/4b/4g/4 e/4g/4b/4g/4e/4g/4b/4g/4 | %59
 [fa]/[fa]/4[fa]/4[fa]/4[fa]/4[fa]/4[fa]/4 [fa]/[fa]/[fa]/[fa]/ [fg]/[fg]/4[fg]/4[fg]/4[fg]/4[fg]/4[fg]/4 [fg]/[fg]/[fg]/[fg]/ | %60
 [=eg]/[eg]/4[eg]/4[eg]/4[eg]/4[eg]/4[eg]/4 [eg]/[eg]/[eg]/[eg]/ f/[FA]/4[FA]/4[FA]/4[FA]/4[FA]/4[FA]/4 [FA]/[FA]/[FA]/[FA]/ | %61
 [DFG]/[DFG]/4[DFG]/4[DFG]/4[DFG]/4[DFG]/4[DFG]/4 [DFG]/[DFG]/[DFG]/[DFG]/ [C=EG]/[CEG]/4[CEG]/4[CEG]/4[CEG]/4[CEG]/4[CEG]/4[Q:1/4=60]"^Rallentando" [CEG]/[Q:1/4=50][CEG]/[Q:1/4=40][CEG]/[Q:1/4=30][CEG]/ | %62
[Q:1/4=68] !fermata![A,CF]8 |] %63
V:2
!mp! F,F,F,F, F,F,F,F, | F,F,F,F, F,F,F,F, | F,F,F,F, F,F,F,F, | %3
 [F,F][F,F][F,F][F,F] [F,F][F,F][F,F][F,F] | [=E,G][E,G][E,G][E,G] [E,G][E,G][E,G][E,G] | %5
 [A,A][A,A][A,A][A,A] [F,F][F,F][F,F][F,F] | %6
 [F,,F,][F,,F,][F,,F,][F,,F,] [F,,F,][F,,F,][F,,F,][F,,F,] | %7
 [F,,,=A,,][F,,=A,][F,,A,][F,,A,] [F,,A,][F,,A,][F,,A,][F,,A,] | %8
 [F,,,G,,][F,,G,][F,,G,][F,,G,] [F,,G,][F,,G,][F,,G,][F,,G,] | %9
 [_G,,,=A,,][_G,,=A,][G,,A,][G,,A,] [G,,A,][G,,A,][G,,A,][G,,A,] | %10
 [G,,,G,,][G,,G,][G,,G,][G,,G,] [G,,,G,,][G,,G,][G,,G,][G,,G,] |!f! !>![C,E,G,C]2 z4 z2 | %12
 z4 (.[C,,C,].[C,,C,].[C,,C,].[C,,C,] | .[C,,C,].[C,,C,].[C,,C,].[C,,C,]) !>![C,E,G,C]2 z2 | z8 | %15
 (.[C,,C,].[C,,C,].[C,,C,].[C,,C,] .[C,,C,].[C,,C,].[C,,C,].[C,,C,]) | !>![C,E,G,C]2 z2 z4 | z8 | %18
 z8 | .[A,,F,].[F,,F,].[F,,F,].[F,,F,] .[F,,F,].[F,,F,].[F,,F,].[F,,F,] | %20
 .[E,,E,].[E,,E,].[E,,E,].[E,,E,] .[D,,D,].[D,,D,].[D,,D,].[D,,D,] | %21
 .[D,,D,].[D,,D,].[D,,D,].[D,,D,] [C,,C,]2 z2 | F,/F,,/F,/F,,/ F,/F,,/F,/F,,/ [B,,A,]2 z2 | %23
 E,/E,,/E,/E,,/ E,/E,,/E,/E,,/ [A,,A,]2 z2 | D,/D,,/D,/D,,/ D,/D,,/D,/D,,/ [_G,,_G,]2 z2 | %25
 C,/C,,/C,/C,,/ C,/C,,/C,/C,,/ F,F,=E,E, | F,F,G,G, A,A,A,A, | A,A,A,A, A,A,A,A, | %28
 B,B,G,G, G,G,G,G, | G,G,G,G, A,A,F,F, | F,F,F,F, =E,_E,=D,_D, | C,C,C,C, C,C,C,C, | %32
 C,C,C,C, C,/4C/4C,/4C/4 C,/4C/4C,/4C/4 C,/4C/4C,/4C/4 C,/4C/4C,/4C/4 | %33
 [F,C]2 z2 F,,/4F,/4F,,/4F,/4 F,,/4F,/4F,,/4F,/4 F,,/4F,/4F,,/4F,/4 F,,/4F,/4F,,/4F,/4 | %34
 [B,,F,]2 z2 G,,/4G,/4G,,/4G,/4 G,,/4G,/4G,,/4G,/4 G,,/4G,/4G,,/4G,/4 G,,/4G,/4G,,/4G,/4 | %35
 [C,G,]2 z2 B,,,/4B,,/4B,,,/4B,,/4 B,,,/4B,,/4B,,,/4B,,/4 B,,,/4B,,/4B,,,/4B,,/4 B,,,/4B,,/4B,,,/4B,,/4 | %36
 [E,B,]2 z2 A,,,/4A,,/4A,,,/4A,,/4 A,,,/4A,,/4A,,,/4A,,/4 A,,,/4A,,/4A,,,/4A,,/4 A,,,/4A,,/4A,,,/4A,,/4 | %37
 B,,,/4B,,/4B,,,/4B,,/4 B,,,/4B,,/4B,,,/4B,,/4 B,,/4B,/4B,,/4B,/4 B,,/4B,/4B,,/4B,/4 !tenuto!.E,.E,.E,.E, | %38
 .E,.E,.E,.E, .E,.E,.E,.E, | .E,.E,.E,.E, .=D,.D,.D,.D, | .E,.E,.E,.E, .E,.E,.E,.E, | %41
 .A,,.A,,.A,,.A,, .F,,.F,,.F,,.F,, | .[B,,B,].[B,,B,].[B,,B,].[B,,B,] .[B,B].[B,B].[B,B].[B,B] | %43
 [G,B,EG]2 z2 [G,B,E]2 [G,B,G]2 | [A,,A,]2 z2 [=A,CF]2 [F,A,]2 | [B,,B,]2 z2 [=B,=DG]2 [DG=B]2 | %46
[K:treble] eeee =dddd | dddd GGGG | gggg ffff | ffff .e.e.e.e | eeee cccc | %51
 [Ba][Ba][Bg][Bg] [Ag][Ag]AA | [Gf][Gf][eg][eg] [ef][ef]ff | %53
 z/4 c/4c/4c/4 z/4 c/4c/4c/4 z/4 c/4c/4c/4 z/4 c/4c/4c/4 z/4 c/4c/4c/4 z/4 c/4c/4c/4 z/4 c/4c/4c/4 z/4 c/4c/4c/4 | %54
 z/4 c/4c/4c/4 z/4 c/4c/4c/4 z/4 c/4c/4c/4 z/4 c/4c/4c/4 z/4 c/4c/4c/4 z/4 c/4c/4c/4 z/4 c/4c/4c/4 z/4 c/4c/4c/4 | %55
[K:bass] [C,C]2 z2!f! F,/F,,/F,/F,,/ F,/F,,/F,/F,,/ | [B,,B,]2 z2 E,/E,,/E,/E,,/ E,/E,,/E,/E,,/ | %57
 [A,,A,]2 z2 D,/D,,/D,/D,,/ D,/D,,/D,/D,,/ | [G,F]2 z2 C/C,/C/C,/ C/C,/C/C,/ | %59
 [F,C]/[F,C]/4[F,C]/4[F,C]/4[F,C]/4[F,C]/4[F,C]/4 [F,C]/[F,C]/[F,C]/[F,C]/ [B,D]/[B,D]/4[B,D]/4[B,D]/4[B,D]/4[B,D]/4[B,D]/4 [B,D]/[B,D]/[B,D]/[B,D]/ | %60
 [C,C]/[C,C]/4[C,C]/4[C,C]/4[C,C]/4[C,C]/4[C,C]/4 [C,C]/[C,C]/[C,C]/[C,C]/ [F,,A,]/[F,C]/4[F,C]/4[F,C]/4[F,C]/4[F,C]/4[F,C]/4 [F,C]/[F,C]/[F,C]/[F,C]/ | %61
 [B,,,B,,]/[B,,,B,,]/4[B,,,B,,]/4[B,,,B,,]/4[B,,,B,,]/4[B,,,B,,]/4[B,,,B,,]/4 [B,,,B,,]/[B,,,B,,]/[B,,,B,,]/[B,,,B,,]/ [C,,C,]/[C,,C,]/4[C,,C,]/4[C,,C,]/4[C,,C,]/4[C,,C,]/4[C,,C,]/4 [C,,C,]/[C,,C,]/[C,,C,]/[C,,C,]/ | %62
 !fermata![F,,,F,,]8 |] %63
V:3
 F,,8 | F,,8 | F,,8 | x8 | x8 | x8 | x8 | x8 | x8 | x8 | x8 | x8 | x8 | x8 | x8 | x8 | x8 | x8 | %18
 x8 | x8 | x8 | x8 | x8 | x8 | x8 | x4 [A,C]2 [G,C]2 | [A,C]2 B,2 C4 | [CF]4 [CF]4 | %28
 F2 B,2 B,2 B,2 | [B,E]4 C2 [A,D]2 | [A,D]2 [A,D]2 G, C2 B, | B,4 G,4 | B,4 x4 | x8 | x8 | x8 | %36
 x8 | x8 | [F,A,B,]4 [F,A,B,]4 | [F,A,B,]4 [A,B,]4 | G,4 B,4 | C,4 C,4 | x8 | x8 | x8 | x8 | %46
[K:treble] .c.c.c.c .f.f.f.f | .g.g.g.g .g.g.g.g | .c.c.c.c .=d.d.d.d | .e.e.e.e x4 | %50
 .F.F.G.G .A.A.A.A | .=d.d.e.e .f.f.f.f | .=B.B.c.c .d.d.d.d | x8 | x8 |[K:bass] x8 | x8 | x8 | %58
 x8 | x8 | x8 | x8 | x8 |] %63
V:4
 x8 | [B,D]8 | [DGB]8 | [dg][dg][dg][dg] [dg][dg][dg][dg] | [dg][dg][dg][dg] [dg][dg][dg][dg] | %5
 [cf][cf][cf][cf] [cf][cf][cf][cf] | [FB][FB][FB][FB] [FB][FB][FB][FB] | %7
 [F=A][FA][FA][FA] [FA][FA][FA][FA] | [G=B][GB][GB][GB] [GB][GB][GB][GB] | %9
 [=Ac][Ac][Ac][Ac] [Ac][Ac][Ac][Ac] | PT=dPTdPTdPTd PTdPTdPTdPTd | x8 | x8 | x8 | x8 | x8 | x8 | %17
 x8 | x8 | x8 | x8 | x8 | x8 | x8 | x8 | x8 | x8 | x8 | x8 | x8 | x8 | x8 | x8 | [Af]2 x6 | %34
 =d2 x6 | e2 x6 | G2 x6 | x8 | x8 | [FA][FA][FA][FA] [FA][FA][FA][FA] | %40
 [EG][EG][EG][EG] .[Bd]/.d/.[Bd]/.d/ .[Bd]/.d/.[Bd]/.d/ | EEEE .e/.e/.e/.e/ .e/.e/.e/.e/ | %42
 [FB][FB][FB][FB] .a/.a/.a/.a/ .a/.a/.a/.a/ | e2 x6 | x8 | x8 | x8 | x8 | x8 | x8 | x8 | x8 | x8 | %53
 x8 | x8 | =e2 x6 | x8 | x8 | x8 | x8 | x8 | x8 | x8 |] %63

